X:1
T:Avondstemming Sopraan
T:Avondstemming Sopraan
T:Pfeil
T:Alice Nahon
C:Pfeil
Z:Alice Nahon
L:1/8
M:3/4
K:Bb
V:1 treble nm="Piano" snm="Pno."
V:1
 F2 D2 E2 | F3 F Bc | B2 A2 z A | c>=B cA GF | F2 z F Bc | d3 d dd | d2 cc cc | c3 e dc | %8
w: 'tIs goed in|'tei- gen hart te|kij- ken, nog|e- ven voor het sla- pen-|gaan, of ik van|da- ge- raad tot|a- vond geen en- kel|hart heb zeer ge-|
w: of ik geen|o- gen heb doen|schrei- en, geen|wee- moed op een we- zen|lei, of ik aan|lief- de- lo- ze|men- sen een woor- de-|ke van lief- de|
w: en voel ik|in het huis mijns|har- ten, dat|ik een droe- fe- nis ge-|nas, dat ik mijn|ar- men heb ge-|won- den rond- om een|hoofd dat een- zaam|
w: dan voel ik|op mijn jon- ge|lip- pen, die|goed- heid lijk een a- vond-|zoen, 'tis goed in|ei- gen hart te|kij- ken en zo zijn|o- gen toe te|
 B2 z B BB | c3 G AB | B3 z z2 |] %11
w: daan, geen en- kel|hart heb zeer ge-|daan|
w: zei, een woor- de-|ke van lief- de|zei|
w: was, rond- om een|hoofd dat een- zaam|was|
w: doen, en zo zijn|o- gen toe te|doen|

